Cloud/dashboard/static/tracks/silverstone.svg

<?xml version="1.0" encoding="UTF-8"?>
<!-- Uploaded to: SVG Find, www.svgfind.com, Generator: SVG Find Mixer Tools -->
<svg fill="#000000" width="800px" height="800px" version="1.1" viewBox="144 144 512 512" xmlns="http://www.w3.org/2000/svg">
 <path d="m607.68 335.39c-0.92578-11.141-10.496-19.867-21.789-19.867-1.875 0-3.75 0.24219-5.582 0.71875l-3.0938 0.80859c-0.97266 0.26172-2.2305-0.25781-2.5078-1.5391-9.2539-42.535-12.199-61.109-11.914-64.098 0.23047-2.3281 1.0977-9.1953 3.9102-28.723 2.125-14.676-5.9688-28.883-19.676-34.551-8.4844-3.5039-18.422-2.9219-26.453 1.5586l-183.26 102.42c-2.7383 1.5234-5.9336 2.1797-9.0156 1.8906l-20.266-1.9609c-8.5703-0.84766-16.789 2.4297-22.461 8.6602-5.0742 5.5742-7.5781 13.082-6.8711 20.594l1.2227 12.984c0.60547 6.4453-2.3008 12.773-7.582 16.512l-14.566 10.301c-10.633 7.5273-16.043 20.207-14.117 33.09l0.10547 0.70703c0.66016 4.4531-0.074219 8.9219-2.1328 12.922l-28.262 54.898-19.934 61.973c-4.2383 13.199 1.9648 27.738 14.426 33.82l100.16 48.863c9.0273 4.4062 19.062 6.7383 29.012 6.7383 3.5938 0 7.2109-0.30078 10.746-0.89453l0.51172-0.085937c7.6641-1.3398 15.109-4.0625 22.145-8.0977l28.766-16.512c5.5977-3.2109 9.5391-8.6836 10.816-15.012 1.2734-6.3242-0.24219-12.898-4.1523-18.027l-1.1016-1.4492c-3.1602-4.1289-7.9492-6.4961-13.148-6.4961-5.0859 0-9.8125 2.2891-12.965 6.2812l-9.918 12.547c-3.0195 3.8281-7.8047 5.8164-12.676 5.2305-5.5742-0.67187-10.203-4.5859-11.785-9.9727l-47.152-160.54c-0.70703-2.418-1.1094-4.9258-1.1875-7.4609l-0.085938-2.8672c-0.24609-8.1484 2.8672-16.078 8.5469-21.754 7.3359-7.3359 14.402-11.652 19.039-13.984 0.81641-0.40234 2.1328-0.12109 2.207 1.2383 0.35547 6.2539-1.3047 13.789-4.793 21.777-1.9727 4.5039-1.5508 9.6445 1.1328 13.742 2.8867 4.418 7.8594 6.9297 13.223 6.4648l52.188-4.2891c12.211-1.0039 24.031 3.3633 32.645 11.977l10.605 10.605c6.168 6.1719 14.371 9.5664 23.098 9.5664 4.1953 0 8.3047-0.79688 12.207-2.3711 21.344-8.6094 66.867-26.945 97.633-39.18l1.8164 4.5898-40.98 16.215-10.941 4.3281 16.277 2.7617 2.1602-4.5352 40.152-15.887-3.707-9.3672c5.9805-2.3711 11.32-4.4805 15.531-6.1211 16.988-6.6367 25.441-21.25 23.789-41.148zm-27.531 31.578c-25.824 10.078-91.156 36.395-118.04 47.242-8.2227 3.3203-17.938 1.3359-24.199-4.9336l-10.605-10.605c-10.75-10.75-25.52-16.227-40.75-14.949l-52.562 4.3008c-1.9766 0-3.043-1.3047-3.4102-1.8672-0.375-0.57031-1.1523-2.1016-0.32031-4.0078 4.1953-9.5977 6.0938-18.504 5.6367-26.473-0.35156-6.2227-5.5195-11.098-11.766-11.098-1.8516 0-3.6367 0.42578-5.3047 1.2656-5.3125 2.6719-13.383 7.5977-21.688 15.902-7.6719 7.6719-11.879 18.355-11.547 29.328l0.085937 2.8672c0.10547 3.4102 0.64844 6.7891 1.5977 10.043l47.152 160.54c2.7422 9.332 10.758 16.113 20.414 17.273 8.5156 1.0234 16.723-2.4375 21.953-9.0547l9.9258-12.551c2.418-3.0547 7.5352-3 9.8828 0.082032l1.1016 1.4453c2.1211 2.7812 2.9453 6.3438 2.25 9.7734-0.69141 3.4258-2.8281 6.3906-5.8633 8.1328l-28.766 16.512c-5.9922 3.4375-12.316 5.7539-19.246 6.9609-11.219 1.8906-23.156 0.12891-33.547-4.9414l-100.16-48.867c-7.9023-3.8555-11.84-13.078-9.1523-21.453l19.477-60.789 28.066-54.52c3.0547-5.9219 4.1484-12.539 3.1641-19.137l-0.10547-0.71094c-1.3555-9.0273 2.4375-17.914 9.8906-23.191l14.562-10.301c8.2773-5.8555 12.828-15.766 11.875-25.859l-1.2227-12.984c-0.44141-4.707 1.0664-9.2227 4.2461-12.719 3.5039-3.8555 8.6016-5.8555 13.871-5.3516l20.266 1.9609c0.82812 0.082031 1.6562 0.12109 2.4766 0.12109 4.3789 0 8.7109-1.1289 12.543-3.2656l183.26-102.42c5.3164-2.9727 11.895-3.3594 17.52-1.0312 9.3633 3.8672 14.887 13.57 13.434 23.59-2.2812 15.824-3.6172 25.637-3.9648 29.164-0.53125 5.3047 3.5352 27.949 12.094 67.301 1.4453 6.6484 8.5508 11 15.145 9.293l3.0938-0.80859c6.8906-1.8008 13.969 3.2266 14.539 10.059 1.2773 15.418-4.543 25.754-17.297 30.734z"/>
</svg>

<?xml version="1.0" encoding="utf-8"?>
<svg fill="#000000" width="800px" height="800px" version="1.1" viewBox="144 144 512 512" xmlns="http://www.w3.org/2000/svg">
  <path d="M 607.68 335.39 C 606.754 324.249 597.184 315.523 585.891 315.523 C 584.016 315.523 582.141 315.765 580.309 316.242 L 577.215 317.05 C 576.243 317.312 574.985 316.793 574.707 315.511 C 565.453 272.976 562.508 254.402 562.793 251.413 C 563.024 249.085 563.891 242.218 566.704 222.69 C 568.829 208.014 560.735 193.807 547.028 188.139 C 538.543 184.635 528.606 185.217 520.575 189.698 L 337.315 292.118 C 334.576 293.641 331.381 294.298 328.299 294.008 L 308.033 292.048 C 299.463 291.2 291.244 294.477 285.572 300.708 C 280.498 306.282 277.994 313.79 278.701 321.302 L 279.924 334.286 C 280.529 340.731 277.623 347.059 272.342 350.798 L 257.776 361.099 C 247.143 368.626 241.733 381.306 243.659 394.189 L 243.764 394.896 C 244.424 399.349 243.69 403.818 241.631 407.818 L 213.369 462.716 L 193.435 524.689 C 189.197 537.888 195.4 552.427 207.861 558.509 L 308.021 607.372 C 317.049 611.778 327.083 614.11 337.033 614.11 C 340.627 614.11 344.244 613.809 347.779 613.216 L 348.291 613.13 C 355.955 611.79 363.4 609.067 370.436 605.032 L 399.202 588.52 C 404.8 585.309 408.741 579.836 410.018 573.508 C 411.291 567.184 409.776 560.61 405.866 555.481 L 404.764 554.032 C 401.604 549.903 396.815 547.536 391.616 547.536 C 386.53 547.536 381.804 549.825 378.651 553.817 L 368.733 566.364 C 365.714 570.192 360.928 572.18 356.057 571.594 C 350.483 570.922 345.854 567.008 344.272 561.622 L 297.12 401.082 C 296.413 398.664 296.011 396.156 295.933 393.621 L 295.847 390.753 C 295.6 382.605 298.714 374.675 304.393 368.999 C 311.729 361.664 318.796 357.347 323.432 355.015 C 324.249 354.613 325.565 354.894 325.639 356.254 C 325.995 362.508 324.335 370.043 320.846 378.031 C 318.874 382.535 319.296 387.675 321.979 391.773 C 324.866 396.191 329.839 398.702 335.202 398.238 L 387.39 393.948 C 399.601 392.945 411.421 397.312 420.035 405.925 L 430.64 416.53 C 436.808 422.702 445.011 426.097 453.738 426.097 C 457.934 426.097 462.043 425.3 465.945 423.726 C 487.289 415.116 579.676 378.171 583.887 376.53 C 600.875 369.893 609.328 355.28 607.676 335.382 L 607.68 335.39 Z M 580.149 366.968 C 554.325 377.046 488.993 403.363 462.109 414.21 C 453.886 417.53 444.171 415.546 437.91 409.276 L 427.305 398.671 C 416.555 387.921 401.785 382.444 386.555 383.722 L 333.993 388.023 C 332.016 388.023 330.95 386.719 330.583 386.156 C 330.208 385.586 329.43 384.054 330.262 382.148 C 334.458 372.551 336.356 363.644 335.899 355.675 C 335.548 349.453 330.38 344.577 324.133 344.577 C 322.282 344.577 320.496 345.003 318.828 345.843 C 313.516 348.515 305.445 353.441 297.14 361.745 C 289.469 369.417 285.261 380.1 285.593 391.073 L 285.679 393.94 C 285.785 397.35 286.328 400.729 287.277 403.983 L 334.429 564.523 C 337.171 573.855 345.187 580.636 354.843 581.796 C 363.359 582.819 371.566 579.359 376.796 572.741 L 386.722 560.19 C 389.14 557.136 394.257 557.19 396.605 560.272 L 397.706 561.718 C 399.827 564.499 400.652 568.061 399.956 571.491 C 399.265 574.917 397.128 577.882 394.093 579.624 L 365.327 596.136 C 359.335 599.573 353.011 601.89 346.081 603.097 C 334.862 604.987 322.925 603.226 312.534 598.155 L 212.374 549.288 C 204.472 545.433 200.534 536.21 203.222 527.835 L 222.699 467.046 L 250.765 412.526 C 253.819 406.604 254.913 399.987 253.929 393.389 L 253.823 392.678 C 252.468 383.651 256.261 374.764 263.714 369.487 L 278.276 359.186 C 286.553 353.331 291.104 343.42 290.151 333.327 L 288.928 320.343 C 288.487 315.636 289.995 311.121 293.174 307.624 C 296.678 303.769 301.776 301.769 307.045 302.273 L 327.311 304.234 C 328.139 304.316 328.968 304.355 329.788 304.355 C 334.167 304.355 338.499 303.226 342.331 301.089 L 525.591 198.669 C 530.907 195.697 537.486 195.31 543.111 197.638 C 552.474 201.505 557.998 211.208 556.545 221.228 C 554.264 237.052 552.928 246.865 552.58 250.392 C 552.049 255.697 556.115 278.341 564.674 317.693 C 566.12 324.341 573.225 328.693 579.819 326.986 L 582.913 326.177 C 589.804 324.377 596.882 329.404 597.452 336.236 C 598.729 351.654 592.909 361.99 580.155 366.97 L 580.149 366.968 Z"/>
</svg>
